X:1
T:Title
%%score { ( 1 3 4 ) | ( 2 5 6 7 ) }
L:1/8
M:2/4
K:Ab
V:1 treble nm="Grand Piano"
V:3 treble 
V:4 treble 
V:2 bass 
V:5 bass 
V:6 bass 
V:7 bass 
V:1
 z2 z[Q:1/4=86] E | EC EA | .G2 z F | GB, DF | z2 z E | EC Ec | cB FF | BF GA | AG FE | EC EA | %10
 .G2 z F | GB, DF | E4 | .[E_Gc]2 dc |[M:13/16] [_Ge]-<[Ge] z/ z/ z/ z/ z/ z B- |[M:2/4] B2 z2 | %16
[M:3/8] A3 |[M:1/8] E |[M:2/4] [CA][Ec] [EB][EA] | [DF]3 [DF] | [DB][Fd] [FB][FA] | [EG]3 [EB] | %22
 [Ee][Ec] [EB][EA] |[M:7/16] [EG][DF][Fd]3/2 |[M:1/8] F |[M:2/4] E<A GB |[M:3/8] [CEA]3 | %27
[M:1/8] E |[M:2/4] [CA][Ec] [EB][EA] | [DF]3 [DF] | [DB][Fd] [FB][FA] | [EG]3 [EB] | %32
 [Ee][Ec] [EB][EA] |[M:7/16] [EG][DF][Fd]3/2 |[M:1/8] [Af] |[M:2/4] [Ae]<A c>B |[M:3/8] [CA]3 |] %37
V:2
 z4 | A,,2 [C,A,]2 | D,2 F,2 | E,2 G,2 | A,,2 [E,A,]2 | A,,2 [C,A,]2 | D,2 [F,B,]2 | %7
 B,,2 [F,A,=D]2 | E,,2 [E,G,]2 | A,,2 [C,A,]2 | D,2 F,2 | E,2 G,2 | A,,2 z E | %13
 z[K:treble] c[K:bass] [E,A,E]2 |[M:13/16] z/ z/ z F/-F/-F/-F/-F-<F z/ |[M:2/4] z4 | %16
[M:3/8] [A,C]3 |[M:1/8] E, |[M:2/4] [A,,E,][A,,A,] [C,A,][C,A,] | [D,A,]3 [D,F,] | %20
 [B,,F,][B,,B,] [D,B,][=D,B,] | [E,B,]3 [D,G,] | [C,A,][A,,A,] [C,A,][C,A,] | %23
[M:7/16] [D,A,][D,A,][D,A,]3/2 |[M:1/8] [D,A,D] |[M:2/4] [E,A,C]<[E,CE] [E,B,E][E,DE] | %26
[M:3/8] A,,3 |[M:1/8] E, |[M:2/4] [A,,E,][A,,A,] [C,A,][C,A,] | [D,A,]3 [D,F,] | %30
 [B,,F,][B,,B,] [D,B,][=D,B,] | [E,B,]3 [D,G,] | [C,A,][A,,A,] [C,A,][C,A,] | %33
[M:7/16] [D,A,][D,A,][D,A,]3/2 |[M:1/8] [D,A,] |[M:2/4] [C,A,]<[F,A,C] [E,A,E]>[E,G,D] | %36
[M:3/8] [A,,A,]3 |] %37
V:3
 x4 | x4 | z .F3 | x4 | E4 | x4 | x4 | =D2 z2 | [DB]4 | x4 | z .F3 | x4 | z2 [A,C]2 | z2 _G2 | %14
[M:13/16] z =A,d3/2 z/ z/ z/ z/ z |[M:2/4] A<E c>B |[M:3/8] x3 |[M:1/8] x |[M:2/4] x4 | x4 | x4 | %21
 x4 | x4 |[M:7/16] x7/2 |[M:1/8] x |[M:2/4] x4 |[M:3/8] x3 |[M:1/8] x |[M:2/4] x4 | x4 | x4 | x4 | %32
 x4 |[M:7/16] x7/2 |[M:1/8] x |[M:2/4] x4 |[M:3/8] x3 |] %37
V:4
 x4 | x4 | z2 A,2 | x4 | z2 C2 | x4 | x4 | x4 | x4 | x4 | z2 A,2 | x4 | x4 | x4 |[M:13/16] x13/2 | %15
[M:2/4] x4 |[M:3/8] x3 |[M:1/8] x |[M:2/4] x4 | x4 | x4 | x4 | x4 |[M:7/16] x7/2 |[M:1/8] x | %25
[M:2/4] x4 |[M:3/8] x3 |[M:1/8] x |[M:2/4] x4 | x4 | x4 | x4 | x4 |[M:7/16] x7/2 |[M:1/8] x | %35
[M:2/4] x4 |[M:3/8] x3 |] %37
V:5
 x4 | x4 | x4 | x4 | x4 | x4 | x4 | x4 | x4 | x4 | x4 | x4 | z2 E,2 | A,,2[K:treble][K:bass] z2 | %14
[M:13/16] z/ z/ z/ z/ z/ z/ z/ z/ z/ z D- |[M:2/4] D2 z2 |[M:3/8] x3 |[M:1/8] x |[M:2/4] x4 | x4 | %20
 x4 | x4 | x4 |[M:7/16] x7/2 |[M:1/8] x |[M:2/4] x4 |[M:3/8] x3 |[M:1/8] x |[M:2/4] x4 | x4 | x4 | %31
 x4 | x4 |[M:7/16] x7/2 |[M:1/8] x |[M:2/4] x4 |[M:3/8] x3 |] %37
V:6
 x4 | x4 | x4 | x4 | x4 | x4 | x4 | x4 | x4 | x4 | x4 | x4 | x4 | x[K:treble] x[K:bass] x2 | %14
[M:13/16] .A,3/2 z/ B,3/2 z/ z/ z/ z/ z |[M:2/4] [E,C]2 [G,D]2 |[M:3/8] x3 |[M:1/8] x |[M:2/4] x4 | %19
 x4 | x4 | x4 | x4 |[M:7/16] x7/2 |[M:1/8] x |[M:2/4] x4 |[M:3/8] x3 |[M:1/8] x |[M:2/4] x4 | x4 | %30
 x4 | x4 | x4 |[M:7/16] x7/2 |[M:1/8] x |[M:2/4] x4 |[M:3/8] x3 |] %37
V:7
 x4 | x4 | x4 | x4 | x4 | x4 | x4 | x4 | x4 | x4 | x4 | x4 | x4 | x[K:treble] x[K:bass] x2 | %14
[M:13/16] D,/-D,/-D,/-D,/-D,/-D,/-D,/-D,/-D,-<D, z/ |[M:2/4] x4 |[M:3/8] x3 |[M:1/8] x | %18
[M:2/4] x4 | x4 | x4 | x4 | x4 |[M:7/16] x7/2 |[M:1/8] x |[M:2/4] x4 |[M:3/8] x3 |[M:1/8] x | %28
[M:2/4] x4 | x4 | x4 | x4 | x4 |[M:7/16] x7/2 |[M:1/8] x |[M:2/4] x4 |[M:3/8] x3 |] %37

